src/main/webapp/resources/img/irida_logo_dark.svg

<?xml version="1.0" encoding="utf-8"?>
<!-- Generator: Adobe Illustrator 16.0.0, SVG Export Plug-In . SVG Version: 6.00 Build 0)  -->
<!DOCTYPE svg PUBLIC "-//W3C//DTD SVG 1.1//EN" "http://www.w3.org/Graphics/SVG/1.1/DTD/svg11.dtd">
<svg version="1.1" id="Layer_1" xmlns="http://www.w3.org/2000/svg" xmlns:xlink="http://www.w3.org/1999/xlink" x="0px" y="0px"
	 width="575px" height="125px" viewBox="0 0 575 125" enable-background="new 0 0 575 125" xml:space="preserve">
<g>
	<path id="WHITE_BACKGROUND_1_" fill="#FFFFFF" d="M212.689,63.714c-0.001,28.366-22.664,51.366-50.621,51.366H60.838
		c-27.958,0-50.62-23-50.621-51.366l0,0C10.216,35.348,32.88,12.349,60.838,12.349h101.231
		C190.026,12.349,212.689,35.348,212.689,63.714L212.689,63.714z"/>
	<g id="GREEN_LOGO_1_">
		<g>
			<path fill="#CFDBAD" d="M17.531,42.516c-3.037,6.395-4.747,13.543-4.755,21.094c-0.024,23.078,15.804,42.47,37.205,47.881
				c0.182-13.263,2.593-25.799,6.754-36.976C40.856,66.494,27.417,55.517,17.531,42.516z"/>
			<path fill="none" stroke="#000000" stroke-width="2" stroke-miterlimit="10" d="M62.167,14.322"/>
			<path fill="#CFDBAD" stroke="#000000" stroke-miterlimit="10" d="M12.776,63.609"/>
			<path fill="#CFDBAD" stroke="#B9C39D" stroke-miterlimit="10" d="M49.98,111.49c0.182-13.263,2.593-25.799,6.754-36.976
				c-15.879-8.021-29.318-18.998-39.204-31.999"/>
			<path fill="#CFDBAD" d="M180.516,108.994c17.411-7.604,29.594-24.958,29.615-45.174c0.003-2.863-0.25-5.664-0.716-8.395
				c-9.679,9.068-21.339,16.662-34.422,22.322C178.202,87.37,180.138,97.911,180.516,108.994z"/>
			<path fill="#CFDBAD" d="M63.139,77.521c-3.41,10.419-5.28,22.285-5.312,35.28c1.397,0.122,2.807,0.197,4.234,0.198l98.678,0.105
				c6.272,0.008,12.267-1.169,17.788-3.298c-1.083-11.259-3.219-21.632-6.272-30.911c-16.01,6.5-34.026,10.148-53.08,10.128
				C98.929,89.003,79.863,84.842,63.139,77.521z"/>
			<path fill="#CFDBAD" d="M160.846,14.429l-98.678-0.106c-16.348-0.017-30.839,7.924-39.83,20.158
				c9.093,13.304,21.917,24.644,37.302,33.053c11.516-24.89,32.174-41.477,55.729-41.451c25.584,0.026,47.708,19.645,58.392,48.188
				c13.314-5.204,25.237-12.432,35.194-21.2C204.071,30.987,184.4,14.454,160.846,14.429z"/>
			<path fill="#CFDBAD" stroke="#B9C39D" stroke-miterlimit="10" d="M171.007,75.309c-10.14-27.645-28.941-44.524-53.231-43.709
				c-23.427,0.788-42.117,15.404-52.07,39.04c17.092,8.146,36.924,12.818,58.08,12.841
				C140.594,83.499,156.569,80.576,171.007,75.309z"/>
			<path fill="none" stroke="#B9C39D" stroke-miterlimit="10" d="M22.337,34.48c9.093,13.304,21.917,24.644,37.302,33.053
				c11.516-24.89,32.174-41.477,55.729-41.451c25.584,0.026,47.708,19.645,58.392,48.188c13.314-5.204,25.237-12.432,35.194-21.2"/>
			<path fill="#CFDBAD" stroke="#B9C39D" stroke-miterlimit="10" d="M178.527,109.808c-1.083-11.259-3.219-21.632-6.272-30.911
				c-16.01,6.5-34.026,10.148-53.08,10.128c-20.247-0.021-39.313-4.183-56.037-11.503c-3.41,10.419-5.28,22.285-5.312,35.28"/>
			<path fill="#CFDBAD" stroke="#000000" stroke-miterlimit="10" d="M160.74,113.105"/>
			<path fill="#CFDBAD" stroke="#B9C39D" stroke-miterlimit="10" d="M209.415,55.426c-9.679,9.068-21.339,16.662-34.422,22.322
				c3.209,9.622,5.146,20.163,5.523,31.246"/>
		</g>
	</g>
	<g id="TEXT_1_">
		<path fill="#FFFFFF" d="M248.551,12.625V113.73H235.5V12.625H248.551z"/>
		<path fill="#FFFFFF" d="M271.353,13.975c6.6-1.35,16.051-2.101,25.051-2.101c13.95,0,22.952,2.551,29.252,8.251
			c5.1,4.5,7.95,11.4,7.95,19.201c0,13.35-8.4,22.201-19.05,25.802v0.449c7.8,2.7,12.449,9.9,14.85,20.401
			c3.3,14.101,5.7,23.851,7.8,27.752h-13.5c-1.65-2.852-3.899-11.551-6.751-24.152c-3.001-13.949-8.399-19.2-20.251-19.651h-12.3
			v43.804h-13.051V13.975z M284.404,60.026h13.351c13.95,0,22.801-7.648,22.801-19.199c0-13.052-9.45-18.752-23.251-18.903
			c-6.3,0-10.801,0.601-12.901,1.201V60.026z"/>
		<path fill="#FFFFFF" d="M365.108,12.625V113.73H352.06V12.625H365.108z"/>
		<path fill="#FFFFFF" d="M387.912,13.975c7.95-1.201,17.399-2.101,27.75-2.101c18.753,0,32.103,4.351,40.953,12.6
			c9,8.252,14.251,19.952,14.251,36.303c0,16.501-5.1,30.002-14.552,39.303c-9.45,9.451-25.051,14.551-44.703,14.551
			c-9.3,0-17.1-0.449-23.699-1.2V13.975z M400.962,103.379c3.301,0.602,8.1,0.751,13.202,0.751c27.9,0,43.052-15.602,43.052-42.903
			c0.149-23.851-13.352-39.002-40.952-39.002c-6.752,0-11.852,0.601-15.302,1.351V103.379z"/>
		<path fill="#FFFFFF" d="M502.069,81.929l-10.501,31.802h-13.501l34.352-101.105h15.752l34.502,101.105h-13.952l-10.8-31.802
			H502.069z M535.221,71.728l-9.9-29.102c-2.25-6.601-3.75-12.602-5.249-18.45h-0.302c-1.5,6-3.149,12.15-5.1,18.301l-9.9,29.251
			H535.221z"/>
	</g>
</g>
</svg>

<?xml version="1.0" encoding="UTF-8" standalone="no"?>
<!DOCTYPE svg PUBLIC "-//W3C//DTD SVG 1.1//EN" "http://www.w3.org/Graphics/SVG/1.1/DTD/svg11.dtd">
<svg width="100%" height="100%" viewBox="0 0 575 125" version="1.1" xmlns="http://www.w3.org/2000/svg"
     xml:space="preserve"
     style="fill-rule:evenodd;clip-rule:evenodd;stroke-linejoin:round;stroke-miterlimit:2;">
    <g>
        <path d="M17.531,42.516C14.494,48.911 12.784,56.059 12.776,63.61C12.752,86.688 28.58,106.08 49.981,111.491C50.163,98.228 52.574,85.692 56.735,74.515C40.856,66.494 27.417,55.517 17.531,42.516Z" style="fill:rgb(207,219,173);fill-rule:nonzero;"/>
        <path d="M49.98,111.49C50.162,98.227 52.573,85.691 56.734,74.514C40.855,66.493 27.416,55.516 17.53,42.515" style="fill:rgb(207,219,173);fill-rule:nonzero;"/>
        <path d="M180.516,108.994C197.927,101.39 210.11,84.036 210.131,63.82C210.134,60.957 209.881,58.156 209.415,55.425C199.736,64.493 188.076,72.087 174.993,77.747C178.202,87.37 180.138,97.911 180.516,108.994Z" style="fill:rgb(207,219,173);fill-rule:nonzero;"/>
        <path d="M63.139,77.521C59.729,87.94 57.859,99.806 57.827,112.801C59.224,112.923 60.634,112.998 62.061,112.999L160.739,113.104C167.011,113.112 173.006,111.935 178.527,109.806C177.444,98.547 175.308,88.174 172.255,78.895C156.245,85.395 138.229,89.043 119.175,89.023C98.929,89.003 79.863,84.842 63.139,77.521Z" style="fill:rgb(207,219,173);fill-rule:nonzero;"/>
        <path d="M160.846,14.429L62.168,14.323C45.82,14.306 31.329,22.247 22.338,34.481C31.431,47.785 44.255,59.125 59.64,67.534C71.156,42.644 91.814,26.057 115.369,26.083C140.953,26.109 163.077,45.728 173.761,74.271C187.075,69.067 198.998,61.839 208.955,53.071C204.071,30.987 184.4,14.454 160.846,14.429Z" style="fill:rgb(207,219,173);fill-rule:nonzero;"/>
        <path d="M171.007,75.309C160.867,47.664 142.066,30.785 117.776,31.6C94.349,32.388 75.659,47.004 65.706,70.64C82.798,78.786 102.63,83.458 123.786,83.481C140.594,83.499 156.569,80.576 171.007,75.309Z" style="fill:rgb(207,219,173);fill-rule:nonzero;"/>
        <path d="M178.527,109.808C177.444,98.549 175.308,88.176 172.255,78.897C156.245,85.397 138.229,89.045 119.175,89.025C98.928,89.004 79.862,84.842 63.138,77.522C59.728,87.941 57.858,99.807 57.826,112.802" style="fill:rgb(207,219,173);fill-rule:nonzero;"/>
        <path d="M209.415,55.426C199.736,64.494 188.076,72.088 174.993,77.748C178.202,87.37 180.139,97.911 180.516,108.994" style="fill:rgb(207,219,173);fill-rule:nonzero;"/>
        <g id="TEXT_1_">
            <rect x="235.5" y="12.625" width="13.051" height="101.105" style="fill:white;fill-rule:nonzero;"/>
            <path d="M271.353,13.975C277.953,12.625 287.404,11.874 296.404,11.874C310.354,11.874 319.356,14.425 325.656,20.125C330.756,24.625 333.606,31.525 333.606,39.326C333.606,52.676 325.206,61.527 314.556,65.128L314.556,65.577C322.356,68.277 327.005,75.477 329.406,85.978C332.706,100.079 335.106,109.829 337.206,113.73L323.706,113.73C322.056,110.878 319.807,102.179 316.955,89.578C313.954,75.629 308.556,70.378 296.704,69.927L284.404,69.927L284.404,113.731L271.353,113.731L271.353,13.975ZM284.404,60.026L297.755,60.026C311.705,60.026 320.556,52.378 320.556,40.827C320.556,27.775 311.106,22.075 297.305,21.924C291.005,21.924 286.504,22.525 284.404,23.125L284.404,60.026Z" style="fill:white;fill-rule:nonzero;"/>
            <rect x="352.06" y="12.625" width="13.048" height="101.105" style="fill:white;fill-rule:nonzero;"/>
            <path d="M387.912,13.975C395.862,12.774 405.311,11.874 415.662,11.874C434.415,11.874 447.765,16.225 456.615,24.474C465.615,32.726 470.866,44.426 470.866,60.777C470.866,77.278 465.766,90.779 456.314,100.08C446.864,109.531 431.263,114.631 411.611,114.631C402.311,114.631 394.511,114.182 387.912,113.431L387.912,13.975ZM400.962,103.379C404.263,103.981 409.062,104.13 414.164,104.13C442.064,104.13 457.216,88.528 457.216,61.227C457.365,37.376 443.864,22.225 416.264,22.225C409.512,22.225 404.412,22.826 400.962,23.576L400.962,103.379Z" style="fill:white;fill-rule:nonzero;"/>
            <path d="M502.069,81.929L491.568,113.731L478.067,113.731L512.419,12.626L528.171,12.626L562.673,113.731L548.721,113.731L537.921,81.929L502.069,81.929ZM535.221,71.728L525.321,42.626C523.071,36.025 521.571,30.024 520.072,24.176L519.77,24.176C518.27,30.176 516.621,36.326 514.67,42.477L504.77,71.728L535.221,71.728Z" style="fill:white;fill-rule:nonzero;"/>
        </g>
    </g>
</svg>
